Newaita-dark/apps/24/com.github.torikulhabib.nino.svg

<svg height="24" viewBox="0 0 24 24" width="24" xmlns="http://www.w3.org/2000/svg" xmlns:xlink="http://www.w3.org/1999/xlink"><linearGradient id="a" gradientTransform="matrix(.0062506 0 0 .0468795 5.854467 10.079089)" gradientUnits="userSpaceOnUse" x1="254" x2="254" y1="233.5" y2="254.666672"><stop offset="0" stop-opacity=".27451"/><stop offset="1" stop-opacity="0"/></linearGradient><linearGradient id="b"><stop offset="0" stop-opacity=".313726"/><stop offset=".222222" stop-opacity=".27451"/><stop offset="1" stop-opacity="0"/></linearGradient><radialGradient id="c" cx="450.908936" cy="189.579361" gradientTransform="matrix(.00000013 -.0585994 -.105479 -.00000008 28.182882 47.696499)" gradientUnits="userSpaceOnUse" r="21.166656" xlink:href="#b"/><radialGradient id="d" cx="450.908936" cy="189.579361" gradientTransform="matrix(-.00000013 .0585994 .105479 .00000008 -13.298649 -5.645609)" gradientUnits="userSpaceOnUse" r="21.166656" xlink:href="#b"/><radialGradient id="e" cx="450.908936" cy="189.579361" gradientTransform="matrix(-.00000013 -.0585994 .105479 -.00000008 -13.298649 47.696499)" gradientUnits="userSpaceOnUse" r="21.166656" xlink:href="#b"/><radialGradient id="f" cx="450.908936" cy="189.579361" gradientTransform="matrix(.00000013 .0585994 -.105479 .00000008 28.18288 -5.64561)" gradientUnits="userSpaceOnUse" r="21.166656" xlink:href="#b"/><linearGradient id="g" gradientUnits="userSpaceOnUse" x1="7.442120625" x2="7.442120625" y1="21.02545025" y2="2.17207774998"><stop offset="0" stop-color="#66bb6a"/><stop offset="1" stop-color="#81c784"/></linearGradient><linearGradient id="h" gradientUnits="userSpaceOnUse" x1="16.372665375" x2="16.372665375" y1="21.02545025" y2="2.17207850005"><stop offset="0" stop-color="#f44336"/><stop offset="1" stop-color="#ef5350"/></linearGradient><radialGradient id="i" cx="450.908936" cy="189.579361" gradientTransform="matrix(.0000001 -.0585994 -.0791091 -.00000008 31.184017 47.696499)" gradientUnits="userSpaceOnUse" r="21.166656" xlink:href="#b"/><radialGradient id="j" cx="450.908936" cy="189.579361" gradientTransform="matrix(-.0000001 .0585994 .0791091 .00000008 1.561298 -5.645609)" gradientUnits="userSpaceOnUse" r="21.166656" xlink:href="#b"/><radialGradient id="k" cx="450.908936" cy="189.579361" gradientTransform="matrix(-.0000001 -.0585994 .0791091 -.00000008 1.561298 47.696499)" gradientUnits="userSpaceOnUse" r="21.166656" xlink:href="#b"/><radialGradient id="l" cx="450.908936" cy="189.579361" gradientTransform="matrix(.0000001 .0585994 -.0791091 .00000008 31.184016 -5.64561)" gradientUnits="userSpaceOnUse" r="21.166656" xlink:href="#b"/><path d="m6.449219 20.953125h1.984375v1.101563h-1.984375zm0 0" fill="url(#a)"/><path d="m8.433594 21.027344h1.984375v-.996094h-1.984375zm0 0" fill="url(#c)"/><path d="m6.449219 21.027344h-1.984375v.992187h1.984375zm0 0" fill="url(#d)"/><path d="m6.449219 21.027344h-1.984375v-.996094h1.984375zm0 0" fill="url(#e)"/><path d="m8.433594 21.027344h1.984375v.992187h-1.984375zm0 0" fill="url(#f)"/><path d="m7.40625 2.175781c-.308594.011719-.597656.171875-.777344.425781l-4.464844 6.449219c-.453124.65625.015626 1.550781.8125 1.550781h1.988282v9.429688c0 .546875.445312.988281.988281.988281h2.976563c.546874 0 .988281-.441406.988281-.988281v-9.429688h1.988281c.796875 0 1.265625-.894531.8125-1.550781l-4.464844-6.449219c-.191406-.277343-.511718-.4375-.847656-.425781zm0 0" fill="url(#g)"/><path d="m16.34375 21.019531c-.3125-.011719-.601562-.167969-.777344-.425781l-4.464844-6.449219c-.453124-.652343.015626-1.546875.808594-1.546875h1.992188v-9.433594c0-.546874.441406-.988281.988281-.988281h2.976563c.542968 0 .984374.441407.984374.988281v9.433594h1.992188c.796875 0 1.265625.894532.8125 1.546875l-4.46875 6.449219c-.191406.277344-.507812.4375-.84375.425781zm0 0" fill="url(#h)"/><path d="m7.4375 2.175781c-.007812 0-.019531 0-.03125 0-.308594.011719-.597656.171875-.777344.425781l-4.464844 6.449219c-.160156.234375-.207031.5-.160156.746094.027344-.128906.078125-.257813.160156-.378906l4.464844-6.449219c.179688-.257812.46875-.414062.777344-.425781.335938-.011719.65625.148437.847656.425781l4.464844 6.449219c.082031.121093.136719.25.160156.378906.046875-.246094.003906-.511719-.160156-.746094l-4.464844-6.449219c-.183594-.265624-.492187-.425781-.816406-.425781zm0 0" fill="#fff" fill-opacity=".392157"/><path d="m14.890625 2.175781c-.546875 0-.988281.441407-.988281.988281v.367188c0-.546875.441406-.988281.988281-.988281h2.976563c.542968 0 .984374.441406.984374.988281v-.367188c0-.546874-.441406-.988281-.984374-.988281zm-2.980469 10.421875c-.648437 0-1.082031.597656-.96875 1.171875.082032-.4375.460938-.808593.96875-.808593h1.992188v-.363282zm6.941406 0v.363282h1.992188c.511719 0 .886719.371093.96875.808593.113281-.574219-.320312-1.171875-.96875-1.171875zm0 0" fill="#fff" fill-opacity=".313726"/><path d="m2.019531 9.367188c-.15625.59375.28125 1.234374.957031 1.234374h1.988282v-.492187h-1.988282c-.488281 0-.851562-.332031-.957031-.742187zm10.84375 0c-.105469.410156-.46875.742187-.957031.742187h-1.988281v.492187h1.988281c.675781 0 1.113281-.640624.957031-1.234374zm-7.898437 10.175781v.488281c0 .546875.445312.988281.988281.988281h2.976563c.546874 0 .988281-.441406.988281-.988281v-.488281c0 .542969-.441407.988281-.988281.988281h-2.976563c-.542969 0-.988281-.445312-.988281-.988281zm0 0" fill-opacity=".235294"/><path d="m10.953125 13.339844c-.066406.261718-.027344.550781.148437.804687l4.464844 6.449219c.175782.257812.464844.414062.777344.425781.335938.011719.652344-.148437.84375-.425781l4.46875-6.449219c.175781-.253906.210938-.542969.144531-.804687-.027343.109375-.078125.214844-.144531.316406l-4.46875 6.449219c-.191406.277343-.507812.4375-.84375.421875-.3125-.007813-.601562-.167969-.777344-.421875l-4.464844-6.449219c-.070312-.101562-.117187-.207031-.148437-.316406zm0 0" fill-opacity=".235294"/><path d="m157.984913-168.587765c-6.582705.249976-12.748782 3.666316-16.58175 9.082466l-95.240905 137.570196c-9.665743 13.998663.333302 33.080174 17.331679 33.080174h42.412616v201.147458c0 11.665553 9.499093 21.08132 21.08132 21.08132h63.493937c11.665553 0 21.08132-9.415767 21.08132-21.08132v-201.147458h42.412617c16.998376 0 26.997421-19.081511 17.331678-33.080174l-95.240905-137.570196c-4.082944-5.916102-10.915624-9.332443-18.081607-9.082466zm0 0" fill="none" stroke="#212121" stroke-linecap="round" stroke-linejoin="round" stroke-width="3" transform="matrix(.0468795 0 0 .0468795 0 10.079087)"/><path d="m348.633374 233.373849c-6.66603-.249976-12.832108-3.582991-16.58175-9.082466l-95.240905-137.570196c-9.665744-13.915338.333302-32.996849 17.248353-32.996849h42.495942v-201.230783c0-11.665553 9.415767-21.08132 21.08132-21.08132h63.493937c11.582227 0 20.997994 9.415767 20.997994 21.08132v201.230783h42.495942c16.998377 0 26.997422 19.081511 17.331678 32.996849l-95.32423 137.570196c-4.082943 5.916102-10.832299 9.332442-17.998281 9.082466zm0 0" fill="none" stroke="#212121" stroke-linecap="round" stroke-linejoin="round" stroke-width="3" transform="matrix(.0468795 0 0 .0468795 0 10.079087)"/><path d="m16.371094 21.027344h1.488281v-.996094h-1.488281zm0 0" fill="url(#i)"/><path d="m16.371094 21.027344h-1.488282v.992187h1.488282zm0 0" fill="url(#j)"/><path d="m16.371094 21.027344h-1.488282v-.996094h1.488282zm0 0" fill="url(#k)"/><path d="m16.371094 21.027344h1.488281v.992187h-1.488281zm0 0" fill="url(#l)"/></svg>

<?xml version="1.0" encoding="UTF-8"?>
<svg xmlns="http://www.w3.org/2000/svg" xmlns:xlink="http://www.w3.org/1999/xlink" width="24px" height="24px" viewBox="0 0 24 24" version="1.1">
<defs>
<linearGradient id="linear0" gradientUnits="userSpaceOnUse" x1="254" y1="233.5" x2="254" y2="254.666672" gradientTransform="matrix(0.0062506,0,0,0.0468795,5.854467,10.079089)">
<stop offset="0" style="stop-color:rgb(0%,0%,0%);stop-opacity:0.27451;"/>
<stop offset="1" style="stop-color:rgb(0%,0%,0%);stop-opacity:0;"/>
</linearGradient>
<radialGradient id="radial0" gradientUnits="userSpaceOnUse" cx="450.908936" cy="189.579361" fx="450.908936" fy="189.579361" r="21.166656" gradientTransform="matrix(0.000000130628,-0.0585994,-0.105479,-0.0000000761539,28.182882,47.696499)">
<stop offset="0" style="stop-color:rgb(0%,0%,0%);stop-opacity:0.313726;"/>
<stop offset="0.222222" style="stop-color:rgb(0%,0%,0%);stop-opacity:0.27451;"/>
<stop offset="1" style="stop-color:rgb(0%,0%,0%);stop-opacity:0;"/>
</radialGradient>
<radialGradient id="radial1" gradientUnits="userSpaceOnUse" cx="450.908936" cy="189.579361" fx="450.908936" fy="189.579361" r="21.166656" gradientTransform="matrix(-0.000000130628,0.0585994,0.105479,0.0000000761539,-13.298649,-5.645609)">
<stop offset="0" style="stop-color:rgb(0%,0%,0%);stop-opacity:0.313726;"/>
<stop offset="0.222222" style="stop-color:rgb(0%,0%,0%);stop-opacity:0.27451;"/>
<stop offset="1" style="stop-color:rgb(0%,0%,0%);stop-opacity:0;"/>
</radialGradient>
<radialGradient id="radial2" gradientUnits="userSpaceOnUse" cx="450.908936" cy="189.579361" fx="450.908936" fy="189.579361" r="21.166656" gradientTransform="matrix(-0.000000130628,-0.0585994,0.105479,-0.0000000761539,-13.298649,47.696499)">
<stop offset="0" style="stop-color:rgb(0%,0%,0%);stop-opacity:0.313726;"/>
<stop offset="0.222222" style="stop-color:rgb(0%,0%,0%);stop-opacity:0.27451;"/>
<stop offset="1" style="stop-color:rgb(0%,0%,0%);stop-opacity:0;"/>
</radialGradient>
<radialGradient id="radial3" gradientUnits="userSpaceOnUse" cx="450.908936" cy="189.579361" fx="450.908936" fy="189.579361" r="21.166656" gradientTransform="matrix(0.000000130628,0.0585994,-0.105479,0.0000000761539,28.18288,-5.64561)">
<stop offset="0" style="stop-color:rgb(0%,0%,0%);stop-opacity:0.313726;"/>
<stop offset="0.222222" style="stop-color:rgb(0%,0%,0%);stop-opacity:0.27451;"/>
<stop offset="1" style="stop-color:rgb(0%,0%,0%);stop-opacity:0;"/>
</radialGradient>
<linearGradient id="linear1" gradientUnits="userSpaceOnUse" x1="158.75" y1="233.5" x2="158.75" y2="-168.666672" gradientTransform="matrix(0.0468795,0,0,0.0468795,0,10.079087)">
<stop offset="0" style="stop-color:rgb(40.000001%,73.333335%,41.568628%);stop-opacity:1;"/>
<stop offset="1" style="stop-color:rgb(50.588238%,78.039217%,51.764709%);stop-opacity:1;"/>
</linearGradient>
<linearGradient id="linear2" gradientUnits="userSpaceOnUse" x1="349.25" y1="233.5" x2="349.25" y2="-168.666656" gradientTransform="matrix(0.0468795,0,0,0.0468795,0,10.079087)">
<stop offset="0" style="stop-color:rgb(95.686275%,26.274511%,21.176471%);stop-opacity:1;"/>
<stop offset="1" style="stop-color:rgb(93.725491%,32.549021%,31.37255%);stop-opacity:1;"/>
</linearGradient>
<radialGradient id="radial4" gradientUnits="userSpaceOnUse" cx="450.908936" cy="189.579361" fx="450.908936" fy="189.579361" r="21.166656" gradientTransform="matrix(0.0000000979708,-0.0585994,-0.0791091,-0.0000000761539,31.184017,47.696499)">
<stop offset="0" style="stop-color:rgb(0%,0%,0%);stop-opacity:0.313726;"/>
<stop offset="0.222222" style="stop-color:rgb(0%,0%,0%);stop-opacity:0.27451;"/>
<stop offset="1" style="stop-color:rgb(0%,0%,0%);stop-opacity:0;"/>
</radialGradient>
<radialGradient id="radial5" gradientUnits="userSpaceOnUse" cx="450.908936" cy="189.579361" fx="450.908936" fy="189.579361" r="21.166656" gradientTransform="matrix(-0.0000000979708,0.0585994,0.0791091,0.0000000761539,1.561298,-5.645609)">
<stop offset="0" style="stop-color:rgb(0%,0%,0%);stop-opacity:0.313726;"/>
<stop offset="0.222222" style="stop-color:rgb(0%,0%,0%);stop-opacity:0.27451;"/>
<stop offset="1" style="stop-color:rgb(0%,0%,0%);stop-opacity:0;"/>
</radialGradient>
<radialGradient id="radial6" gradientUnits="userSpaceOnUse" cx="450.908936" cy="189.579361" fx="450.908936" fy="189.579361" r="21.166656" gradientTransform="matrix(-0.0000000979708,-0.0585994,0.0791091,-0.0000000761539,1.561298,47.696499)">
<stop offset="0" style="stop-color:rgb(0%,0%,0%);stop-opacity:0.313726;"/>
<stop offset="0.222222" style="stop-color:rgb(0%,0%,0%);stop-opacity:0.27451;"/>
<stop offset="1" style="stop-color:rgb(0%,0%,0%);stop-opacity:0;"/>
</radialGradient>
<radialGradient id="radial7" gradientUnits="userSpaceOnUse" cx="450.908936" cy="189.579361" fx="450.908936" fy="189.579361" r="21.166656" gradientTransform="matrix(0.0000000979708,0.0585994,-0.0791091,0.0000000761539,31.184016,-5.64561)">
<stop offset="0" style="stop-color:rgb(0%,0%,0%);stop-opacity:0.313726;"/>
<stop offset="0.222222" style="stop-color:rgb(0%,0%,0%);stop-opacity:0.27451;"/>
<stop offset="1" style="stop-color:rgb(0%,0%,0%);stop-opacity:0;"/>
</radialGradient>
</defs>
<g id="surface1">
<path style=" stroke:none;fill-rule:nonzero;fill:url(#linear0);" d="M 6.449219 20.953125 L 8.433594 20.953125 L 8.433594 22.054688 L 6.449219 22.054688 Z M 6.449219 20.953125 "/>
<path style=" stroke:none;fill-rule:nonzero;fill:url(#radial0);" d="M 8.433594 21.027344 L 10.417969 21.027344 L 10.417969 20.03125 L 8.433594 20.03125 Z M 8.433594 21.027344 "/>
<path style=" stroke:none;fill-rule:nonzero;fill:url(#radial1);" d="M 6.449219 21.027344 L 4.464844 21.027344 L 4.464844 22.019531 L 6.449219 22.019531 Z M 6.449219 21.027344 "/>
<path style=" stroke:none;fill-rule:nonzero;fill:url(#radial2);" d="M 6.449219 21.027344 L 4.464844 21.027344 L 4.464844 20.03125 L 6.449219 20.03125 Z M 6.449219 21.027344 "/>
<path style=" stroke:none;fill-rule:nonzero;fill:url(#radial3);" d="M 8.433594 21.027344 L 10.417969 21.027344 L 10.417969 22.019531 L 8.433594 22.019531 Z M 8.433594 21.027344 "/>
<path style=" stroke:none;fill-rule:nonzero;fill:url(#linear1);" d="M 7.40625 2.175781 C 7.097656 2.1875 6.808594 2.347656 6.628906 2.601562 L 2.164062 9.050781 C 1.710938 9.707031 2.179688 10.601562 2.976562 10.601562 L 4.964844 10.601562 L 4.964844 20.03125 C 4.964844 20.578125 5.410156 21.019531 5.953125 21.019531 L 8.929688 21.019531 C 9.476562 21.019531 9.917969 20.578125 9.917969 20.03125 L 9.917969 10.601562 L 11.90625 10.601562 C 12.703125 10.601562 13.171875 9.707031 12.71875 9.050781 L 8.253906 2.601562 C 8.0625 2.324219 7.742188 2.164062 7.40625 2.175781 Z M 7.40625 2.175781 "/>
<path style=" stroke:none;fill-rule:nonzero;fill:url(#linear2);" d="M 16.34375 21.019531 C 16.03125 21.007812 15.742188 20.851562 15.566406 20.59375 L 11.101562 14.144531 C 10.648438 13.492188 11.117188 12.597656 11.910156 12.597656 L 13.902344 12.597656 L 13.902344 3.164062 C 13.902344 2.617188 14.34375 2.175781 14.890625 2.175781 L 17.867188 2.175781 C 18.410156 2.175781 18.851562 2.617188 18.851562 3.164062 L 18.851562 12.597656 L 20.84375 12.597656 C 21.640625 12.597656 22.109375 13.492188 21.65625 14.144531 L 17.1875 20.59375 C 16.996094 20.871094 16.679688 21.03125 16.34375 21.019531 Z M 16.34375 21.019531 "/>
<path style=" stroke:none;fill-rule:nonzero;fill:rgb(100%,100%,100%);fill-opacity:0.392157;" d="M 7.4375 2.175781 C 7.429688 2.175781 7.417969 2.175781 7.40625 2.175781 C 7.097656 2.1875 6.808594 2.347656 6.628906 2.601562 L 2.164062 9.050781 C 2.003906 9.285156 1.957031 9.550781 2.003906 9.796875 C 2.03125 9.667969 2.082031 9.539062 2.164062 9.417969 L 6.628906 2.96875 C 6.808594 2.710938 7.097656 2.554688 7.40625 2.542969 C 7.742188 2.53125 8.0625 2.691406 8.253906 2.96875 L 12.71875 9.417969 C 12.800781 9.539062 12.855469 9.667969 12.878906 9.796875 C 12.925781 9.550781 12.882812 9.285156 12.71875 9.050781 L 8.253906 2.601562 C 8.070312 2.335938 7.761719 2.175781 7.4375 2.175781 Z M 7.4375 2.175781 "/>
<path style=" stroke:none;fill-rule:nonzero;fill:rgb(100%,100%,100%);fill-opacity:0.313726;" d="M 14.890625 2.175781 C 14.34375 2.175781 13.902344 2.617188 13.902344 3.164062 L 13.902344 3.53125 C 13.902344 2.984375 14.34375 2.542969 14.890625 2.542969 L 17.867188 2.542969 C 18.410156 2.542969 18.851562 2.984375 18.851562 3.53125 L 18.851562 3.164062 C 18.851562 2.617188 18.410156 2.175781 17.867188 2.175781 Z M 11.910156 12.597656 C 11.261719 12.597656 10.828125 13.195312 10.941406 13.769531 C 11.023438 13.332031 11.402344 12.960938 11.910156 12.960938 L 13.902344 12.960938 L 13.902344 12.597656 Z M 18.851562 12.597656 L 18.851562 12.960938 L 20.84375 12.960938 C 21.355469 12.960938 21.730469 13.332031 21.8125 13.769531 C 21.925781 13.195312 21.492188 12.597656 20.84375 12.597656 Z M 18.851562 12.597656 "/>
<path style=" stroke:none;fill-rule:nonzero;fill:rgb(0%,0%,0%);fill-opacity:0.235294;" d="M 2.019531 9.367188 C 1.863281 9.960938 2.300781 10.601562 2.976562 10.601562 L 4.964844 10.601562 L 4.964844 10.109375 L 2.976562 10.109375 C 2.488281 10.109375 2.125 9.777344 2.019531 9.367188 Z M 12.863281 9.367188 C 12.757812 9.777344 12.394531 10.109375 11.90625 10.109375 L 9.917969 10.109375 L 9.917969 10.601562 L 11.90625 10.601562 C 12.582031 10.601562 13.019531 9.960938 12.863281 9.367188 Z M 4.964844 19.542969 L 4.964844 20.03125 C 4.964844 20.578125 5.410156 21.019531 5.953125 21.019531 L 8.929688 21.019531 C 9.476562 21.019531 9.917969 20.578125 9.917969 20.03125 L 9.917969 19.542969 C 9.917969 20.085938 9.476562 20.53125 8.929688 20.53125 L 5.953125 20.53125 C 5.410156 20.53125 4.964844 20.085938 4.964844 19.542969 Z M 4.964844 19.542969 "/>
<path style=" stroke:none;fill-rule:nonzero;fill:rgb(0%,0%,0%);fill-opacity:0.235294;" d="M 10.953125 13.339844 C 10.886719 13.601562 10.925781 13.890625 11.101562 14.144531 L 15.566406 20.59375 C 15.742188 20.851562 16.03125 21.007812 16.34375 21.019531 C 16.679688 21.03125 16.996094 20.871094 17.1875 20.59375 L 21.65625 14.144531 C 21.832031 13.890625 21.867188 13.601562 21.800781 13.339844 C 21.773438 13.449219 21.722656 13.554688 21.65625 13.65625 L 17.1875 20.105469 C 16.996094 20.382812 16.679688 20.542969 16.34375 20.527344 C 16.03125 20.519531 15.742188 20.359375 15.566406 20.105469 L 11.101562 13.65625 C 11.03125 13.554688 10.984375 13.449219 10.953125 13.339844 Z M 10.953125 13.339844 "/>
<path style="fill:none;stroke-width:3;stroke-linecap:round;stroke-linejoin:round;stroke:rgb(12.941177%,12.941177%,12.941177%);stroke-opacity:1;stroke-miterlimit:4;" d="M 157.984913 -168.587765 C 151.402208 -168.337789 145.236131 -164.921449 141.403163 -159.505299 L 46.162258 -21.935103 C 36.496515 -7.93644 46.49556 11.145071 63.493937 11.145071 L 105.906553 11.145071 L 105.906553 212.292529 C 105.906553 223.958082 115.405646 233.373849 126.987873 233.373849 L 190.48181 233.373849 C 202.147363 233.373849 211.56313 223.958082 211.56313 212.292529 L 211.56313 11.145071 L 253.975747 11.145071 C 270.974123 11.145071 280.973168 -7.93644 271.307425 -21.935103 L 176.06652 -159.505299 C 171.983576 -165.421401 165.150896 -168.837742 157.984913 -168.587765 Z M 157.984913 -168.587765 " transform="matrix(0.0468795,0,0,0.0468795,0,10.079087)"/>
<path style="fill:none;stroke-width:3;stroke-linecap:round;stroke-linejoin:round;stroke:rgb(12.941177%,12.941177%,12.941177%);stroke-opacity:1;stroke-miterlimit:4;" d="M 348.633374 233.373849 C 341.967344 233.123873 335.801266 229.790858 332.051624 224.291383 L 236.810719 86.721187 C 227.144975 72.805849 237.144021 53.724338 254.059072 53.724338 L 296.555014 53.724338 L 296.555014 -147.506445 C 296.555014 -159.171998 305.970781 -168.587765 317.636334 -168.587765 L 381.130271 -168.587765 C 392.712498 -168.587765 402.128265 -159.171998 402.128265 -147.506445 L 402.128265 53.724338 L 444.624207 53.724338 C 461.622584 53.724338 471.621629 72.805849 461.955885 86.721187 L 366.631655 224.291383 C 362.548712 230.207485 355.799356 233.623825 348.633374 233.373849 Z M 348.633374 233.373849 " transform="matrix(0.0468795,0,0,0.0468795,0,10.079087)"/>
<path style=" stroke:none;fill-rule:nonzero;fill:url(#radial4);" d="M 16.371094 21.027344 L 17.859375 21.027344 L 17.859375 20.03125 L 16.371094 20.03125 Z M 16.371094 21.027344 "/>
<path style=" stroke:none;fill-rule:nonzero;fill:url(#radial5);" d="M 16.371094 21.027344 L 14.882812 21.027344 L 14.882812 22.019531 L 16.371094 22.019531 Z M 16.371094 21.027344 "/>
<path style=" stroke:none;fill-rule:nonzero;fill:url(#radial6);" d="M 16.371094 21.027344 L 14.882812 21.027344 L 14.882812 20.03125 L 16.371094 20.03125 Z M 16.371094 21.027344 "/>
<path style=" stroke:none;fill-rule:nonzero;fill:url(#radial7);" d="M 16.371094 21.027344 L 17.859375 21.027344 L 17.859375 22.019531 L 16.371094 22.019531 Z M 16.371094 21.027344 "/>
</g>
</svg>
